X: 697
T: Zhangsheng xi yuanyang
%%abc-version 2.0
%%abcx-abcm2ps-target-version 5.9.1 (29 Sep 2008)
%%abc-creator hum2abc beta
%%abcx-conversion-date 2013/10/02 07:52:30
%%abc-edited-by Helmut Schaffrath
%%humdrum-veritas 3742433889
%%humdrum-veritas-data 1279887056
%%continueall 1
%%barnumbers 0
L: 1/8
M: 2/4
K: Eb
G G/ B/ c e [I:setbarnb 1]| 
B c/ B/ G F | 
G G/ B/ c e | 
B c/ B/ G F | 
GB2e | 
c B G F | 
B F G B/ c/ | 
E> FE2 | 
G EF2 | 
B B e G | 
F G F E | 
F/ E/C2E | 
F G/ B/ E C | 
B,4 |]  



